public/assets/site/animation.svg

<svg xmlns="http://www.w3.org/2000/svg" width="32" height="32" viewBox="0 0 32 32"><path fill="#fff" d="M16.332 31.895l-1.405-1.326 13.762-14.569-13.762-14.567 1.405-1.328 15.017 15.895-15.017 15.895zm-14.276 0l-1.405-1.326 13.763-14.569-13.763-14.567 1.405-1.328 15.016 15.895-15.016 15.895z"/></svg>

<?xml version="1.0" encoding="utf-8"?>
<!-- Generator: Adobe Illustrator 16.0.0, SVG Export Plug-In . SVG Version: 6.00 Build 0)  -->
<!DOCTYPE svg PUBLIC "-//W3C//DTD SVG 1.1//EN" "http://www.w3.org/Graphics/SVG/1.1/DTD/svg11.dtd">
<svg version="1.1" id="Layer_1" xmlns="http://www.w3.org/2000/svg" xmlns:xlink="http://www.w3.org/1999/xlink" x="0px" y="0px"
	 width="32px" height="32px" viewBox="0 0 32 32" enable-background="new 0 0 32 32" xml:space="preserve">
<g>
	<path fill="#FFFFFF" d="M16.332,31.895l-1.405-1.326L28.689,16L14.927,1.433l1.405-1.328L31.349,16L16.332,31.895z M2.056,31.895
		l-1.405-1.326L14.414,16L0.651,1.433l1.405-1.328L17.072,16L2.056,31.895z"/>
</g>
</svg>
